src/icons/svg/MoveToTrash.svg

<svg width="24" height="24" viewBox="0 0 24 24" fill="none" xmlns="http://www.w3.org/2000/svg">
<path d="M4.116 20.99H2.482C2.349 20.99 2.242 21.097 2.242 21.23C2.242 21.363 2.349 21.47 2.482 21.47H4.116C4.249 21.47 4.356 21.363 4.356 21.23C4.356 21.097 4.249 20.99 4.116 20.99Z" fill="#1C2125"/>
<path d="M4.243 20.21H3.12C2.987 20.21 2.88 20.317 2.88 20.45C2.88 20.583 2.987 20.69 3.12 20.69H4.25C4.383 20.69 4.49 20.583 4.49 20.45C4.49 20.317 4.383 20.21 4.25 20.21H4.243Z" fill="#1C2125"/>
<path d="M18.259 20.042H18.775C19.04 20.042 19.255 19.827 19.255 19.562V11.625C19.255 11.36 19.04 11.145 18.775 11.145H18.259C17.994 11.145 17.779 11.36 17.779 11.625V19.562C17.779 19.827 17.994 20.042 18.259 20.042ZM18.379 11.746H18.655V19.44H18.379V11.746Z" fill="#1C2125"/>
<path d="M15.773 20.042H16.287C16.552 20.042 16.767 19.827 16.767 19.562V11.625C16.767 11.36 16.552 11.145 16.287 11.145H15.773C15.508 11.145 15.293 11.36 15.293 11.625V19.562C15.293 19.827 15.508 20.042 15.773 20.042ZM15.893 11.746H16.167V19.44H15.893V11.746Z" fill="#1C2125"/>
<path d="M13.284 20.042H13.798C14.063 20.042 14.278 19.827 14.278 19.562V11.625C14.278 11.36 14.063 11.145 13.798 11.145H13.284C13.019 11.145 12.804 11.36 12.804 11.625V19.562C12.804 19.827 13.019 20.042 13.284 20.042ZM13.404 11.746H13.68V19.44H13.404V11.746Z" fill="#1C2125"/>
<path d="M21.972 8.16H18.521V6.571C18.521 6.187 18.209 5.875 17.825 5.875H14.465C14.081 5.875 13.769 6.187 13.769 6.571V8.16H10.092C9.99299 8.161 9.91299 8.241 9.91199 8.34V9.9C9.91299 9.999 9.99299 10.079 10.092 10.08H10.416L10.829 17.328H9.48999V14.4C9.48899 14.303 9.40999 14.225 9.31199 14.225C9.31099 14.225 9.30999 14.225 9.30899 14.225H8.24599C8.24499 14.225 8.24399 14.225 8.24399 14.225C8.14699 14.225 8.06799 14.303 8.06599 14.4V17.328H6.57999C6.57899 17.328 6.57899 17.328 6.57799 17.328C5.97499 17.328 5.46299 17.719 5.28199 18.262L5.27899 18.272V18.289C5.23899 18.408 5.21699 18.546 5.21699 18.689C5.21699 18.69 5.21699 18.691 5.21699 18.692C5.21699 18.725 5.24399 18.752 5.27699 18.752C5.27799 18.752 5.27899 18.752 5.27999 18.752H5.51999L5.11699 21.392C5.11599 21.4 5.11499 21.409 5.11499 21.418C5.11499 21.517 5.19499 21.598 5.29499 21.598H20.821C20.916 21.598 20.994 21.524 21.001 21.431V21.43L21.649 10.08H21.973C22.072 10.079 22.152 9.999 22.153 9.9V8.34C22.152 8.241 22.072 8.161 21.973 8.16H21.972ZM14.362 7.56V6.571C14.362 6.57 14.362 6.569 14.362 6.569C14.362 6.517 14.404 6.475 14.456 6.475C14.457 6.475 14.458 6.475 14.459 6.475H17.819C17.82 6.475 17.821 6.475 17.821 6.475C17.873 6.475 17.915 6.517 17.915 6.569C17.915 6.57 17.915 6.571 17.915 6.572V8.161H17.341V7.141C17.34 7.042 17.26 6.962 17.161 6.961H15.121C15.022 6.962 14.942 7.042 14.941 7.141V8.161H14.363L14.362 7.56ZM16.74 7.56V8.16H15.54V7.56H16.74ZM8.54599 14.686H9.00899V17.326H8.54599V14.686ZM6.58099 17.806H10.975C11.159 17.807 11.329 17.864 11.47 17.961L11.467 17.959C11.574 18.033 11.662 18.126 11.726 18.236L11.728 18.24H5.82399C5.97999 17.98 6.25999 17.809 6.57999 17.808L6.58099 17.806ZM11.114 21.12V20.282C11.113 20.192 11.062 20.114 10.988 20.074L10.987 20.073C10.954 20.055 10.916 20.043 10.875 20.042C10.742 20.042 10.635 20.149 10.635 20.282V21.12H10.035V20.282C10.035 20.149 9.92799 20.042 9.79499 20.042C9.66199 20.042 9.55499 20.149 9.55499 20.282V21.12H8.95299V20.282C8.95299 20.149 8.84599 20.042 8.71299 20.042C8.57999 20.042 8.47299 20.149 8.47299 20.282V21.12H7.87299V20.282C7.87299 20.149 7.76599 20.042 7.63299 20.042C7.49999 20.042 7.39299 20.149 7.39299 20.282V21.12H6.79099V20.282C6.79099 20.149 6.68399 20.042 6.55099 20.042C6.41799 20.042 6.31099 20.149 6.31099 20.282V21.12H5.64899L6.00199 18.751H11.548L11.891 21.007L11.91 21.12H11.114ZM20.422 21.007H12.377L12.034 18.751H12.274C12.307 18.751 12.334 18.724 12.334 18.691C12.334 18.688 12.334 18.684 12.334 18.68C12.334 18.54 12.312 18.405 12.271 18.278L12.274 18.287V18.27C12.14 17.868 11.836 17.555 11.448 17.414L11.439 17.411L11.019 10.079H21.046L20.422 21.007ZM21.552 9.487H10.512V8.767H21.552V9.487Z" fill="#1C2125"/>
</svg>

<!-- Generated by IcoMoon.io -->
<svg version="1.1" xmlns="http://www.w3.org/2000/svg" width="24" height="24" viewBox="0 0 24 24">
<title>move-to-trash</title>
<path fill="#444" d="M4.116 20.99h-1.634c-0.133 0-0.24 0.107-0.24 0.24s0.107 0.24 0.24 0.24v0h1.634c0.133 0 0.24-0.107 0.24-0.24s-0.107-0.24-0.24-0.24v0z"></path>
<path fill="#444" d="M4.243 20.21h-1.123c-0.133 0-0.24 0.107-0.24 0.24s0.107 0.24 0.24 0.24v0h1.13c0.133 0 0.24-0.107 0.24-0.24s-0.107-0.24-0.24-0.24v0z"></path>
<path fill="#444" d="M18.259 20.042h0.516c0.265 0 0.48-0.215 0.48-0.48v0-7.937c0-0.265-0.215-0.48-0.48-0.48v0h-0.516c-0.265 0-0.48 0.215-0.48 0.48v0 7.937c0 0.265 0.215 0.48 0.48 0.48v0zM18.379 11.746h0.276v7.694h-0.276z"></path>
<path fill="#444" d="M15.773 20.042h0.514c0.265 0 0.48-0.215 0.48-0.48v0-7.937c0-0.265-0.215-0.48-0.48-0.48v0h-0.514c-0.265 0-0.48 0.215-0.48 0.48v0 7.937c0 0.265 0.215 0.48 0.48 0.48v0zM15.893 11.746h0.274v7.694h-0.274z"></path>
<path fill="#444" d="M13.284 20.042h0.514c0.265 0 0.48-0.215 0.48-0.48v0-7.937c0-0.265-0.215-0.48-0.48-0.48v0h-0.514c-0.265 0-0.48 0.215-0.48 0.48v0 7.937c0 0.265 0.215 0.48 0.48 0.48v0zM13.404 11.746h0.276v7.694h-0.276z"></path>
<path fill="#444" d="M21.972 8.16h-3.451v-1.589c0-0.384-0.312-0.696-0.696-0.696v0h-3.36c-0.384 0-0.696 0.312-0.696 0.696v0 1.589h-3.677c-0.099 0.001-0.179 0.081-0.18 0.18v1.56c0.001 0.099 0.081 0.179 0.18 0.18h0.324l0.413 7.248h-1.339v-2.928c-0.001-0.097-0.080-0.175-0.178-0.175-0.001 0-0.002 0-0.003 0h-1.063c-0.001 0-0.002-0-0.002-0-0.097 0-0.176 0.078-0.178 0.175v2.928h-1.486c-0.001 0-0.001 0-0.002 0-0.603 0-1.115 0.391-1.296 0.934l-0.003 0.010v0.017c-0.040 0.119-0.062 0.257-0.062 0.4 0 0.001 0 0.002 0 0.003v-0c0 0 0 0 0 0 0 0.033 0.027 0.060 0.060 0.060 0.001 0 0.002-0 0.003-0h0.24l-0.403 2.64c-0.001 0.008-0.002 0.017-0.002 0.026 0 0.099 0.080 0.18 0.18 0.18h15.526c0 0 0 0 0 0 0.095 0 0.173-0.074 0.18-0.167l0-0.001 0.648-11.35h0.324c0.099-0.001 0.179-0.081 0.18-0.18v-1.56c-0.001-0.099-0.081-0.179-0.18-0.18h-0zM14.362 7.56v-0.989c-0-0.001-0-0.002-0-0.002 0-0.052 0.042-0.094 0.094-0.094 0.001 0 0.002 0 0.003 0h3.36c0.001-0 0.002-0 0.002-0 0.052 0 0.094 0.042 0.094 0.094 0 0.001 0 0.002-0 0.003v-0 1.589h-0.574v-1.020c-0.001-0.099-0.081-0.179-0.18-0.18h-2.040c-0.099 0.001-0.179 0.081-0.18 0.18v1.020h-0.578zM16.74 7.56v0.6h-1.2v-0.6zM8.546 14.686h0.463v2.64h-0.463zM6.581 17.806h4.394c0.184 0.001 0.354 0.058 0.495 0.155l-0.003-0.002c0.107 0.074 0.195 0.167 0.259 0.277l0.002 0.004h-5.904c0.156-0.26 0.436-0.431 0.756-0.432h0zM11.114 21.12v-0.838c-0.001-0.090-0.052-0.168-0.126-0.208l-0.001-0.001c-0.033-0.018-0.071-0.030-0.112-0.031l-0-0c-0.133 0-0.24 0.107-0.24 0.24v0 0.838h-0.6v-0.838c0-0.133-0.107-0.24-0.24-0.24s-0.24 0.107-0.24 0.24v0 0.838h-0.602v-0.838c0-0.133-0.107-0.24-0.24-0.24s-0.24 0.107-0.24 0.24v0 0.838h-0.6v-0.838c0-0.133-0.107-0.24-0.24-0.24s-0.24 0.107-0.24 0.24v0 0.838h-0.602v-0.838c0-0.133-0.107-0.24-0.24-0.24s-0.24 0.107-0.24 0.24v0 0.838h-0.662l0.353-2.369h5.546l0.343 2.256 0.019 0.113zM20.422 21.007h-8.045l-0.343-2.256h0.24c0.033 0 0.060-0.027 0.060-0.060v0c0-0.003 0-0.007 0-0.011 0-0.14-0.022-0.275-0.063-0.402l0.003 0.009v-0.017c-0.134-0.402-0.438-0.715-0.826-0.856l-0.009-0.003-0.42-7.332h10.027zM21.552 9.487h-11.040v-0.72h11.040z"></path>
</svg>
